cdn/fa/svgs/sharp-thin/up-to-line.svg

<svg xmlns="http://www.w3.org/2000/svg" viewBox="0 0 384 512"><!--! Font Awesome Pro 6.5.2 by @fontawesome - https://fontawesome.com License - https://fontawesome.com/license (Commercial License) Copyright 2024 Fonticons, Inc. --><path d="M8 48L0 48 0 32l8 0 368 0 8 0 0 16-8 0L8 48zM128 320l-16 0-64 0-16 0 0-16 0-16L180.7 139.3 192 128l11.3 11.3L352 288l0 16 0 16-16 0-64 0-16 0 0 16 0 128 0 16-16 0-96 0-16 0 0-16 0-128 0-16zm0-16l16 0 0 16 0 144 96 0 0-144 0-16 16 0 80 0 0-9.4-144-144L48 294.6l0 9.4 80 0z"/></svg>

<svg xmlns="http://www.w3.org/2000/svg" viewBox="0 0 384 512"><!--! Font Awesome Pro 6.5.1 by @fontawesome - https://fontawesome.com License - https://fontawesome.com/license (Commercial License) Copyright 2023 Fonticons, Inc. --><path d="M8 40H0V24H8 376h8V40h-8H8zM128 320H112 48 32V304 288L180.7 139.3 192 128l11.3 11.3L352 288v16 16H336 272 256v16V464v16H240 144 128V464 336 320zm0-16h16v16V464h96V320 304h16 80v-9.4l-144-144L48 294.6V304h80z"/></svg>
